X: 185
M:3/2
L:1/8
K:G
E4G4B4 | e2dc BAGF G2E2 | gfeg fe^dfe2B2 | A2cB AGFE^D2B,2 |
E4G4B4 | e2dc BAGFG2E2 | gfeg fe^dfe2BA | GFEG B,2^D2E4 ||

